the-plus-addons-for-block-editor/assets/images/dynamic-category/2.svg

<svg xmlns="http://www.w3.org/2000/svg" width="1000" height="700" fill="none" viewBox="0 0 1000 700"><path fill="#fff" d="M0 0h1000v700H0z"/><path fill="#A6A6A6" d="M80 113h260v177H80z"/><path fill="#fff" d="M100 133h220v60H100z"/><path fill="#000" d="M111.256 145.122v-2.031h14.182v2.031h-5.947V162h-2.289v-16.878h-5.946Zm21.309 17.173c-1.366 0-2.545-.301-3.536-.904-.985-.61-1.745-1.459-2.28-2.549-.53-1.095-.794-2.369-.794-3.822 0-1.453.264-2.733.794-3.841.535-1.114 1.28-1.982 2.234-2.604.96-.628 2.08-.941 3.361-.941.738 0 1.468.123 2.188.369.72.246 1.376.646 1.967 1.2.59.548 1.061 1.274 1.412 2.179.351.905.527 2.019.527 3.342v.924h-10.932v-1.884h8.716c0-.8-.16-1.514-.481-2.142a3.607 3.607 0 0 0-1.348-1.486c-.578-.364-1.261-.545-2.049-.545-.868 0-1.619.215-2.253.646a4.259 4.259 0 0 0-1.45 1.662 4.89 4.89 0 0 0-.507 2.198v1.255c0 1.071.184 1.979.554 2.724.375.739.895 1.302 1.56 1.69.665.381 1.437.572 2.317.572.573 0 1.09-.08 1.551-.24a3.312 3.312 0 0 0 1.21-.739c.339-.332.6-.744.785-1.237l2.105.591a4.678 4.678 0 0 1-1.117 1.884c-.523.535-1.17.954-1.939 1.255-.77.296-1.634.443-2.595.443Zm10.431-14.477 3.398 5.798 3.398-5.798h2.511l-4.579 7.091 4.579 7.091h-2.511l-3.398-5.503-3.398 5.503h-2.511l4.506-7.091-4.506-7.091h2.511Zm18.584 0v1.847h-7.35v-1.847h7.35Zm-5.207-3.398h2.178v13.518c0 .615.09 1.077.268 1.384.185.302.419.505.702.61.289.098.594.148.914.148.24 0 .437-.013.591-.037l.369-.074.443 1.957a4.288 4.288 0 0 1-.618.166c-.265.062-.6.093-1.007.093a4.396 4.396 0 0 1-1.809-.397 3.596 3.596 0 0 1-1.459-1.21c-.382-.542-.572-1.225-.572-2.05V144.42Z"/><path fill="#000" fill-opacity=".5" d="M117.544 183.139c-.703 0-1.329-.129-1.879-.388a3.27 3.27 0 0 1-1.303-1.068 2.752 2.752 0 0 1-.502-1.562h2.088c.023.395.189.715.497.96.309.245.675.368 1.099.368.338 0 .636-.075.895-.224.262-.152.466-.363.611-.631.15-.272.224-.584.224-.935 0-.358-.076-.673-.229-.945a1.623 1.623 0 0 0-.621-.636 1.84 1.84 0 0 0-.91-.234c-.298 0-.588.062-.87.184-.278.123-.495.29-.651.503l-1.914-.343.482-5.37h6.225v1.76h-4.45l-.264 2.551h.06c.179-.252.449-.461.81-.627a2.877 2.877 0 0 1 1.214-.248c.613 0 1.16.144 1.64.432.481.288.86.685 1.139 1.188.278.501.416 1.077.412 1.73.004.686-.155 1.296-.477 1.83-.318.53-.764.948-1.337 1.253-.57.301-1.233.452-1.989.452Z"/><path fill="#A6A6A6" d="M370 113h260v224H370z"/><path fill="#fff" d="M390 133h220v60H390z"/><path fill="#000" d="M401.256 145.122v-2.031h14.182v2.031h-5.947V162h-2.289v-16.878h-5.946Zm21.309 17.173c-1.366 0-2.545-.301-3.536-.904-.985-.61-1.745-1.459-2.28-2.549-.53-1.095-.794-2.369-.794-3.822 0-1.453.264-2.733.794-3.841.535-1.114 1.28-1.982 2.234-2.604.96-.628 2.08-.941 3.361-.941.738 0 1.468.123 2.188.369.72.246 1.376.646 1.967 1.2.59.548 1.061 1.274 1.412 2.179.351.905.527 2.019.527 3.342v.924h-10.932v-1.884h8.716c0-.8-.16-1.514-.481-2.142a3.607 3.607 0 0 0-1.348-1.486c-.578-.364-1.261-.545-2.049-.545-.868 0-1.619.215-2.253.646a4.259 4.259 0 0 0-1.45 1.662 4.89 4.89 0 0 0-.507 2.198v1.255c0 1.071.184 1.979.554 2.724.375.739.895 1.302 1.56 1.69.665.381 1.437.572 2.317.572.573 0 1.09-.08 1.551-.24a3.312 3.312 0 0 0 1.21-.739c.339-.332.6-.744.785-1.237l2.105.591a4.678 4.678 0 0 1-1.117 1.884c-.523.535-1.17.954-1.939 1.255-.77.296-1.634.443-2.595.443Zm10.431-14.477 3.398 5.798 3.398-5.798h2.511l-4.579 7.091 4.579 7.091h-2.511l-3.398-5.503-3.398 5.503h-2.511l4.506-7.091-4.506-7.091h2.511Zm18.584 0v1.847h-7.35v-1.847h7.35Zm-5.207-3.398h2.178v13.518c0 .615.09 1.077.268 1.384.185.302.419.505.702.61.289.098.594.148.914.148.24 0 .437-.013.591-.037l.369-.074.443 1.957a4.288 4.288 0 0 1-.618.166c-.265.062-.6.093-1.007.093a4.396 4.396 0 0 1-1.809-.397 3.596 3.596 0 0 1-1.459-1.21c-.382-.542-.572-1.225-.572-2.05V144.42Z"/><path fill="#000" fill-opacity=".5" d="M407.544 183.139c-.703 0-1.329-.129-1.879-.388a3.27 3.27 0 0 1-1.303-1.068 2.752 2.752 0 0 1-.502-1.562h2.088c.023.395.189.715.497.96.309.245.675.368 1.099.368.338 0 .636-.075.895-.224.262-.152.466-.363.611-.631.15-.272.224-.584.224-.935 0-.358-.076-.673-.229-.945a1.623 1.623 0 0 0-.621-.636 1.84 1.84 0 0 0-.91-.234c-.298 0-.588.062-.87.184-.278.123-.495.29-.651.503l-1.914-.343.482-5.37h6.225v1.76h-4.45l-.264 2.551h.06c.179-.252.449-.461.81-.627a2.877 2.877 0 0 1 1.214-.248c.613 0 1.16.144 1.64.432.481.288.86.685 1.139 1.188.278.501.416 1.077.412 1.73.004.686-.155 1.296-.477 1.83-.318.53-.764.948-1.337 1.253-.57.301-1.233.452-1.989.452Z"/><path fill="#A6A6A6" d="M660 113h260v256H660z"/><path fill="#fff" d="M680 133h220v60H680z"/><path fill="#000" d="M691.256 145.122v-2.031h14.182v2.031h-5.947V162h-2.289v-16.878h-5.946Zm21.309 17.173c-1.366 0-2.545-.301-3.536-.904-.985-.61-1.745-1.459-2.28-2.549-.53-1.095-.794-2.369-.794-3.822 0-1.453.264-2.733.794-3.841.535-1.114 1.28-1.982 2.234-2.604.96-.628 2.08-.941 3.361-.941.738 0 1.468.123 2.188.369.72.246 1.376.646 1.967 1.2.59.548 1.061 1.274 1.412 2.179.351.905.527 2.019.527 3.342v.924h-10.932v-1.884h8.716c0-.8-.16-1.514-.481-2.142a3.607 3.607 0 0 0-1.348-1.486c-.578-.364-1.261-.545-2.049-.545-.868 0-1.619.215-2.253.646a4.259 4.259 0 0 0-1.45 1.662 4.89 4.89 0 0 0-.507 2.198v1.255c0 1.071.184 1.979.554 2.724.375.739.895 1.302 1.56 1.69.665.381 1.437.572 2.317.572.573 0 1.09-.08 1.551-.24a3.312 3.312 0 0 0 1.21-.739c.339-.332.6-.744.785-1.237l2.105.591a4.678 4.678 0 0 1-1.117 1.884c-.523.535-1.17.954-1.939 1.255-.77.296-1.634.443-2.595.443Zm10.431-14.477 3.398 5.798 3.398-5.798h2.511l-4.579 7.091 4.579 7.091h-2.511l-3.398-5.503-3.398 5.503h-2.511l4.506-7.091-4.506-7.091h2.511Zm18.584 0v1.847h-7.35v-1.847h7.35Zm-5.207-3.398h2.178v13.518c0 .615.09 1.077.268 1.384.185.302.419.505.702.61.289.098.594.148.914.148.24 0 .437-.013.591-.037l.369-.074.443 1.957a4.288 4.288 0 0 1-.618.166c-.265.062-.6.093-1.007.093a4.396 4.396 0 0 1-1.809-.397 3.596 3.596 0 0 1-1.459-1.21c-.382-.542-.572-1.225-.572-2.05V144.42Z"/><path fill="#000" fill-opacity=".5" d="M697.544 183.139c-.703 0-1.329-.129-1.879-.388a3.27 3.27 0 0 1-1.303-1.068 2.752 2.752 0 0 1-.502-1.562h2.088c.023.395.189.715.497.96.309.245.675.368 1.099.368.338 0 .636-.075.895-.224.262-.152.466-.363.611-.631.15-.272.224-.584.224-.935 0-.358-.076-.673-.229-.945a1.623 1.623 0 0 0-.621-.636 1.84 1.84 0 0 0-.91-.234c-.298 0-.588.062-.87.184-.278.123-.495.29-.651.503l-1.914-.343.482-5.37h6.225v1.76h-4.45l-.264 2.551h.06c.179-.252.449-.461.81-.627a2.877 2.877 0 0 1 1.214-.248c.613 0 1.16.144 1.64.432.481.288.86.685 1.139 1.188.278.501.416 1.077.412 1.73.004.686-.155 1.296-.477 1.83-.318.53-.764.948-1.337 1.253-.57.301-1.233.452-1.989.452Z"/></svg>

<svg width="1000" height="700" viewBox="0 0 1000 700" fill="none" xmlns="http://www.w3.org/2000/svg">
<rect width="1000" height="700" fill="white"/>
<rect width="260" height="177" transform="translate(80 113)" fill="#A6A6A6"/>
<rect width="220" height="60" transform="translate(100 133)" fill="white"/>
<path d="M111.256 145.122V143.091H125.438V145.122H119.491V162H117.202V145.122H111.256ZM132.565 162.295C131.199 162.295 130.02 161.994 129.029 161.391C128.044 160.781 127.284 159.932 126.749 158.842C126.219 157.747 125.955 156.473 125.955 155.02C125.955 153.567 126.219 152.287 126.749 151.179C127.284 150.065 128.029 149.197 128.983 148.575C129.943 147.947 131.063 147.634 132.344 147.634C133.082 147.634 133.812 147.757 134.532 148.003C135.252 148.249 135.908 148.649 136.499 149.203C137.089 149.751 137.56 150.477 137.911 151.382C138.262 152.287 138.438 153.401 138.438 154.724V155.648H127.506V153.764H136.222C136.222 152.964 136.062 152.25 135.741 151.622C135.428 150.994 134.978 150.499 134.393 150.136C133.815 149.772 133.132 149.591 132.344 149.591C131.476 149.591 130.725 149.806 130.091 150.237C129.463 150.662 128.98 151.216 128.641 151.899C128.303 152.582 128.134 153.315 128.134 154.097V155.352C128.134 156.423 128.318 157.331 128.688 158.076C129.063 158.815 129.583 159.378 130.248 159.766C130.913 160.147 131.685 160.338 132.565 160.338C133.138 160.338 133.655 160.258 134.116 160.098C134.584 159.932 134.987 159.686 135.326 159.359C135.665 159.027 135.926 158.615 136.111 158.122L138.216 158.713C137.994 159.427 137.622 160.055 137.099 160.597C136.576 161.132 135.929 161.551 135.16 161.852C134.39 162.148 133.526 162.295 132.565 162.295ZM142.996 147.818L146.394 153.616L149.792 147.818H152.303L147.724 154.909L152.303 162H149.792L146.394 156.497L142.996 162H140.485L144.991 154.909L140.485 147.818H142.996ZM161.58 147.818V149.665H154.23V147.818H161.58ZM156.373 144.42H158.551V157.938C158.551 158.553 158.641 159.015 158.819 159.322C159.004 159.624 159.238 159.827 159.521 159.932C159.81 160.03 160.115 160.08 160.435 160.08C160.675 160.08 160.872 160.067 161.026 160.043C161.18 160.012 161.303 159.987 161.395 159.969L161.838 161.926C161.691 161.982 161.484 162.037 161.22 162.092C160.955 162.154 160.62 162.185 160.213 162.185C159.598 162.185 158.995 162.052 158.404 161.788C157.819 161.523 157.333 161.12 156.945 160.578C156.563 160.036 156.373 159.353 156.373 158.528V144.42Z" fill="black"/>
<path d="M117.544 183.139C116.841 183.139 116.215 183.01 115.665 182.751C115.118 182.493 114.684 182.137 114.362 181.683C114.041 181.228 113.873 180.708 113.86 180.121H115.948C115.971 180.516 116.137 180.836 116.445 181.081C116.754 181.326 117.12 181.449 117.544 181.449C117.882 181.449 118.18 181.374 118.439 181.225C118.701 181.073 118.905 180.862 119.05 180.594C119.2 180.322 119.274 180.01 119.274 179.659C119.274 179.301 119.198 178.986 119.045 178.714C118.896 178.443 118.689 178.231 118.424 178.078C118.159 177.926 117.856 177.848 117.514 177.844C117.216 177.844 116.926 177.906 116.644 178.028C116.366 178.151 116.149 178.318 115.993 178.531L114.079 178.188L114.561 172.818H120.786V174.578H116.336L116.072 177.129H116.132C116.311 176.877 116.581 176.668 116.942 176.502C117.304 176.336 117.708 176.254 118.156 176.254C118.769 176.254 119.316 176.398 119.796 176.686C120.277 176.974 120.656 177.371 120.935 177.874C121.213 178.375 121.351 178.951 121.347 179.604C121.351 180.29 121.192 180.9 120.87 181.434C120.552 181.964 120.106 182.382 119.533 182.687C118.963 182.988 118.3 183.139 117.544 183.139Z" fill="black" fill-opacity="0.5"/>
<rect width="260" height="224" transform="translate(370 113)" fill="#A6A6A6"/>
<rect width="220" height="60" transform="translate(390 133)" fill="white"/>
<path d="M401.256 145.122V143.091H415.438V145.122H409.491V162H407.202V145.122H401.256ZM422.565 162.295C421.199 162.295 420.02 161.994 419.029 161.391C418.044 160.781 417.284 159.932 416.749 158.842C416.219 157.747 415.955 156.473 415.955 155.02C415.955 153.567 416.219 152.287 416.749 151.179C417.284 150.065 418.029 149.197 418.983 148.575C419.943 147.947 421.063 147.634 422.344 147.634C423.082 147.634 423.812 147.757 424.532 148.003C425.252 148.249 425.908 148.649 426.499 149.203C427.089 149.751 427.56 150.477 427.911 151.382C428.262 152.287 428.438 153.401 428.438 154.724V155.648H417.506V153.764H426.222C426.222 152.964 426.062 152.25 425.741 151.622C425.428 150.994 424.978 150.499 424.393 150.136C423.815 149.772 423.132 149.591 422.344 149.591C421.476 149.591 420.725 149.806 420.091 150.237C419.463 150.662 418.98 151.216 418.641 151.899C418.303 152.582 418.134 153.315 418.134 154.097V155.352C418.134 156.423 418.318 157.331 418.688 158.076C419.063 158.815 419.583 159.378 420.248 159.766C420.913 160.147 421.685 160.338 422.565 160.338C423.138 160.338 423.655 160.258 424.116 160.098C424.584 159.932 424.987 159.686 425.326 159.359C425.665 159.027 425.926 158.615 426.111 158.122L428.216 158.713C427.994 159.427 427.622 160.055 427.099 160.597C426.576 161.132 425.929 161.551 425.16 161.852C424.39 162.148 423.526 162.295 422.565 162.295ZM432.996 147.818L436.394 153.616L439.792 147.818H442.303L437.724 154.909L442.303 162H439.792L436.394 156.497L432.996 162H430.485L434.991 154.909L430.485 147.818H432.996ZM451.58 147.818V149.665H444.23V147.818H451.58ZM446.373 144.42H448.551V157.938C448.551 158.553 448.641 159.015 448.819 159.322C449.004 159.624 449.238 159.827 449.521 159.932C449.81 160.03 450.115 160.08 450.435 160.08C450.675 160.08 450.872 160.067 451.026 160.043C451.18 160.012 451.303 159.987 451.395 159.969L451.838 161.926C451.691 161.982 451.484 162.037 451.22 162.092C450.955 162.154 450.62 162.185 450.213 162.185C449.598 162.185 448.995 162.052 448.404 161.788C447.819 161.523 447.333 161.12 446.945 160.578C446.563 160.036 446.373 159.353 446.373 158.528V144.42Z" fill="black"/>
<path d="M407.544 183.139C406.841 183.139 406.215 183.01 405.665 182.751C405.118 182.493 404.684 182.137 404.362 181.683C404.041 181.228 403.873 180.708 403.86 180.121H405.948C405.971 180.516 406.137 180.836 406.445 181.081C406.754 181.326 407.12 181.449 407.544 181.449C407.882 181.449 408.18 181.374 408.439 181.225C408.701 181.073 408.905 180.862 409.05 180.594C409.2 180.322 409.274 180.01 409.274 179.659C409.274 179.301 409.198 178.986 409.045 178.714C408.896 178.443 408.689 178.231 408.424 178.078C408.159 177.926 407.856 177.848 407.514 177.844C407.216 177.844 406.926 177.906 406.644 178.028C406.366 178.151 406.149 178.318 405.993 178.531L404.079 178.188L404.561 172.818H410.786V174.578H406.336L406.072 177.129H406.132C406.311 176.877 406.581 176.668 406.942 176.502C407.304 176.336 407.708 176.254 408.156 176.254C408.769 176.254 409.316 176.398 409.796 176.686C410.277 176.974 410.656 177.371 410.935 177.874C411.213 178.375 411.351 178.951 411.347 179.604C411.351 180.29 411.192 180.9 410.87 181.434C410.552 181.964 410.106 182.382 409.533 182.687C408.963 182.988 408.3 183.139 407.544 183.139Z" fill="black" fill-opacity="0.5"/>
<rect width="260" height="256" transform="translate(660 113)" fill="#A6A6A6"/>
<rect width="220" height="60" transform="translate(680 133)" fill="white"/>
<path d="M691.256 145.122V143.091H705.438V145.122H699.491V162H697.202V145.122H691.256ZM712.565 162.295C711.199 162.295 710.02 161.994 709.029 161.391C708.044 160.781 707.284 159.932 706.749 158.842C706.219 157.747 705.955 156.473 705.955 155.02C705.955 153.567 706.219 152.287 706.749 151.179C707.284 150.065 708.029 149.197 708.983 148.575C709.943 147.947 711.063 147.634 712.344 147.634C713.082 147.634 713.812 147.757 714.532 148.003C715.252 148.249 715.908 148.649 716.499 149.203C717.089 149.751 717.56 150.477 717.911 151.382C718.262 152.287 718.438 153.401 718.438 154.724V155.648H707.506V153.764H716.222C716.222 152.964 716.062 152.25 715.741 151.622C715.428 150.994 714.978 150.499 714.393 150.136C713.815 149.772 713.132 149.591 712.344 149.591C711.476 149.591 710.725 149.806 710.091 150.237C709.463 150.662 708.98 151.216 708.641 151.899C708.303 152.582 708.134 153.315 708.134 154.097V155.352C708.134 156.423 708.318 157.331 708.688 158.076C709.063 158.815 709.583 159.378 710.248 159.766C710.913 160.147 711.685 160.338 712.565 160.338C713.138 160.338 713.655 160.258 714.116 160.098C714.584 159.932 714.987 159.686 715.326 159.359C715.665 159.027 715.926 158.615 716.111 158.122L718.216 158.713C717.994 159.427 717.622 160.055 717.099 160.597C716.576 161.132 715.929 161.551 715.16 161.852C714.39 162.148 713.526 162.295 712.565 162.295ZM722.996 147.818L726.394 153.616L729.792 147.818H732.303L727.724 154.909L732.303 162H729.792L726.394 156.497L722.996 162H720.485L724.991 154.909L720.485 147.818H722.996ZM741.58 147.818V149.665H734.23V147.818H741.58ZM736.373 144.42H738.551V157.938C738.551 158.553 738.641 159.015 738.819 159.322C739.004 159.624 739.238 159.827 739.521 159.932C739.81 160.03 740.115 160.08 740.435 160.08C740.675 160.08 740.872 160.067 741.026 160.043C741.18 160.012 741.303 159.987 741.395 159.969L741.838 161.926C741.691 161.982 741.484 162.037 741.22 162.092C740.955 162.154 740.62 162.185 740.213 162.185C739.598 162.185 738.995 162.052 738.404 161.788C737.819 161.523 737.333 161.12 736.945 160.578C736.563 160.036 736.373 159.353 736.373 158.528V144.42Z" fill="black"/>
<path d="M697.544 183.139C696.841 183.139 696.215 183.01 695.665 182.751C695.118 182.493 694.684 182.137 694.362 181.683C694.041 181.228 693.873 180.708 693.86 180.121H695.948C695.971 180.516 696.137 180.836 696.445 181.081C696.754 181.326 697.12 181.449 697.544 181.449C697.882 181.449 698.18 181.374 698.439 181.225C698.701 181.073 698.905 180.862 699.05 180.594C699.2 180.322 699.274 180.01 699.274 179.659C699.274 179.301 699.198 178.986 699.045 178.714C698.896 178.443 698.689 178.231 698.424 178.078C698.159 177.926 697.856 177.848 697.514 177.844C697.216 177.844 696.926 177.906 696.644 178.028C696.366 178.151 696.149 178.318 695.993 178.531L694.079 178.188L694.561 172.818H700.786V174.578H696.336L696.072 177.129H696.132C696.311 176.877 696.581 176.668 696.942 176.502C697.304 176.336 697.708 176.254 698.156 176.254C698.769 176.254 699.316 176.398 699.796 176.686C700.277 176.974 700.656 177.371 700.935 177.874C701.213 178.375 701.351 178.951 701.347 179.604C701.351 180.29 701.192 180.9 700.87 181.434C700.552 181.964 700.106 182.382 699.533 182.687C698.963 182.988 698.3 183.139 697.544 183.139Z" fill="black" fill-opacity="0.5"/>
</svg>
